Sweet-Rainbow/icons/mullvad-vpn.svg

<?xml version="1.0" encoding="UTF-8" standalone="no"?>
<!-- Generator: Gravit.io -->

<svg
   xmlns:dc="http://purl.org/dc/elements/1.1/"
   xmlns:cc="http://creativecommons.org/ns#"
   xmlns:rdf="http://www.w3.org/1999/02/22-rdf-syntax-ns#"
   xmlns:svg="http://www.w3.org/2000/svg"
   xmlns="http://www.w3.org/2000/svg"
   xmlns:sodipodi="http://sodipodi.sourceforge.net/DTD/sodipodi-0.dtd"
   xmlns:inkscape="http://www.inkscape.org/namespaces/inkscape"
   style="isolation:isolate"
   viewBox="0 0 36 36"
   width="48"
   height="48"
   version="1.1"
   id="svg9"
   sodipodi:docname="mullvad-vpn.svg"
   inkscape:version="0.92.4 (5da689c313, 2019-01-14)">
  <metadata
     id="metadata15">
    <rdf:RDF>
      <cc:Work
         rdf:about="">
        <dc:format>image/svg+xml</dc:format>
        <dc:type
           rdf:resource="http://purl.org/dc/dcmitype/StillImage" />
        <dc:title></dc:title>
      </cc:Work>
    </rdf:RDF>
  </metadata>
  <defs
     id="defs13" />
  <sodipodi:namedview
     pagecolor="#ffffff"
     bordercolor="#666666"
     borderopacity="1"
     objecttolerance="10"
     gridtolerance="10"
     guidetolerance="10"
     inkscape:pageopacity="0"
     inkscape:pageshadow="2"
     inkscape:window-width="640"
     inkscape:window-height="480"
     id="namedview11"
     showgrid="false"
     inkscape:zoom="29.365243"
     inkscape:cx="25.325443"
     inkscape:cy="32"
     inkscape:current-layer="svg9"
     units="px" />
  <linearGradient
     id="_lgradient_1"
     x1="0"
     y1="0.5"
     x2="1"
     y2="0.5"
     gradientTransform="matrix(48,0,0,46.642,0,0.679)"
     gradientUnits="userSpaceOnUse">
    <stop
       offset="0%"
       stop-opacity="1"
       style="stop-color:rgb(247,242,6)"
       id="stop2" />
    <stop
       offset="97.82608695652173%"
       stop-opacity="1"
       style="stop-color:rgb(255,187,36)"
       id="stop4" />
  </linearGradient>
  <g
     id="g826"
     transform="scale(0.75)">
    <path
       id="path7"
       d="m 25.772,4.121 c 2.404,-2.182 5.564,-3.435 8.896,-3.442 3.528,0 6.922,1.405 9.425,3.897 2.502,2.502 3.907,5.897 3.907,9.435 0,2.872 -0.933,5.661 -2.646,7.958 -0.061,0.175 -0.133,0.349 -0.195,0.523 v 0 c -0.082,0.934 -0.533,1.805 -1.251,2.41 -0.001,10e-4 -0.002,0.002 -0.002,0.002 v 0 c 0.016,0.593 0.039,0.512 0.033,1.209 0.154,1.015 0.266,2.04 0.349,3.066 0.051,0.677 0.123,1.364 0.205,2.041 0.082,0.584 0.184,1.159 0.328,1.733 0.277,1.077 0.748,2.082 1.415,2.964 0.544,0.667 0.851,1.497 0.862,2.359 -0.011,0.851 -0.308,1.682 -0.841,2.348 -0.267,0.349 -0.544,0.677 -0.852,0.995 -0.656,0.687 -1.374,1.302 -2.164,1.825 -0.82,0.565 -1.671,1.067 -2.563,1.508 -1.877,0.944 -3.867,1.631 -5.918,2.041 -0.708,0.123 -1.415,0.215 -2.133,0.256 -0.779,0.052 -1.549,0.072 -2.328,0.072 -1.138,0 -2.277,-0.041 -3.405,-0.144 -1.015,-0.061 -2.02,-0.215 -3.005,-0.451 -0.02,-0.01 -0.041,-0.01 -0.072,-0.02 -0.758,-0.195 -1.528,-0.411 -2.286,-0.636 -0.852,-0.236 -1.682,-0.544 -2.482,-0.903 -0.677,-0.338 -1.323,-0.707 -1.939,-1.128 -0.605,-0.4 -1.189,-0.83 -1.743,-1.282 -0.523,-0.41 -1.026,-0.861 -1.487,-1.343 -0.226,-0.226 -0.431,-0.472 -0.615,-0.739 -0.677,-0.902 -0.893,-2.071 -0.595,-3.158 0.769,-1.415 1.692,-2.759 2.738,-3.99 0.205,-0.236 0.41,-0.471 0.626,-0.697 -0.226,-0.595 -0.339,-1.22 -0.329,-1.856 -0.923,-0.913 -1.866,-1.805 -2.81,-2.687 C 11.06,26.625 9.306,24.892 7.614,23.077 6.763,22.154 5.973,21.19 5.234,20.175 4.414,19.036 3.717,17.816 3.163,16.534 3.153,16.483 3.144,16.431 3.137,16.379 v 0 C 1.361,16.117 0,14.584 0,12.736 0,10.699 1.654,9.044 3.692,9.044 c 1.51,0 2.81,0.909 3.371,2.214 0.415,-0.055 0.837,-0.077 1.258,-0.077 l 0.38,0.01 c 0.01,0 0.02,0 0.031,0 0.205,0 0.41,0.01 0.615,0.01 0.482,-0.01 0.964,-0.01 1.446,-0.01 0.831,-0.01 1.661,-0.01 2.502,-0.01 0,0 0.011,0 0.011,0 l 3.319,0.006 v 0 C 16.7,10.39 16.995,9.63 17.48,8.986 17.992,8.34 18.669,7.837 19.438,7.54 19.92,7.355 20.433,7.232 20.956,7.16 21.305,7.109 21.664,7.078 22.023,7.048 22.177,7.037 22.32,7.027 22.474,7.007 22.587,6.996 22.71,6.986 22.833,6.986 h 0.523 C 23.829,6.226 24.371,5.524 24.97,4.883 25.129,4.691 25.308,4.515 25.499,4.35 v 0 c 0.089,-0.079 0.18,-0.155 0.273,-0.229 z m -1.743,5.944 h -1.195 c -1.125,0.146 -3.155,0 -3.155,1.578 0,0.151 1.264,0.271 2.804,0.977 1.776,0.813 3.718,2.018 5.307,3.294 4.246,3.41 6.023,4.45 10.061,5.895 3.829,1.37 4.28,0.878 4.25,0.274 -0.009,-0.177 0.235,-0.841 0.548,-1.642 1.42,-1.76 2.274,-3.995 2.274,-6.432 0,-5.664 -4.591,-10.255 -10.255,-10.255 v 0 0 0 c -0.922,0 -1.813,0.122 -2.657,0.36 0.112,0.111 0.223,0.222 0.329,0.339 0.697,0.8 1.077,1.836 1.056,2.902 -0.02,1.508 -0.697,2.923 -1.836,3.908 -0.964,0.851 -2.194,1.333 -3.486,1.343 -1.272,0.031 -2.503,-0.502 -3.354,-1.456 -0.285,-0.327 -0.517,-0.693 -0.691,-1.085 z m 3.22,-3.118 c 0.183,-0.182 0.367,-0.363 0.57,-0.524 0.36,-0.223 0.775,-0.352 1.208,-0.36 0.38,0 0.739,0.154 1.005,0.431 0.185,0.225 0.298,0.513 0.287,0.82 C 30.309,7.94 30.022,8.535 29.53,8.935 29.12,9.314 28.586,9.529 28.033,9.54 27.653,9.54 27.284,9.386 27.027,9.109 26.833,8.883 26.73,8.596 26.73,8.289 26.746,7.794 26.929,7.318 27.249,6.947 Z m -0.042,23.228 c 1.347,-0.452 3.08,-1.678 4.421,-3.128 0.751,-0.812 0.826,-1.005 0.458,-1.18 -0.275,-0.131 -1.108,0.281 -2.21,1.093 -1.988,1.463 -3.868,2.34 -5.124,2.389 -0.464,0.018 -1.138,0.141 -1.499,0.273 -0.621,0.229 -0.6,0.262 0.393,0.618 1.294,0.465 2.02,0.451 3.561,-0.065 z M 6.985,14.4 c 0.395,-0.123 0.944,-0.154 1.674,-0.133 0.763,0.02 7.441,0.006 9.265,0.001 v 0 l 0.704,0.297 c 0.082,0.041 0.175,0.072 0.267,0.102 0.205,0.072 0.42,0.124 0.636,0.175 0.574,0.154 1.138,0.338 1.692,0.584 1.651,0.77 3.21,1.734 4.635,2.882 0.944,0.769 1.918,1.518 2.913,2.246 0.82,0.605 1.682,1.169 2.564,1.692 0.841,0.493 1.712,0.934 2.605,1.334 0.943,0.41 1.897,0.779 2.871,1.128 0.8,0.287 1.61,0.543 2.431,0.759 0.535,0.14 1.079,0.235 1.623,0.279 0,0.178 0,0.375 0,0.58 0.669,4.147 0.142,7.832 2.968,11.517 0.344,0.453 0.262,0.663 -0.644,1.641 -1.791,1.935 -5.567,3.813 -9.012,4.485 -2.332,0.454 -7.398,0.328 -9.587,-0.239 v 0 c -1.14,-0.295 -3.305,-0.903 -4.233,-1.35 -1.884,-0.909 -4.739,-3.216 -4.739,-3.829 1.197,-2.074 2.949,-4.247 4.736,-5.351 -1.326,-0.856 -1.768,-1.42 -1.498,-2.953 0,0 0.139,-0.554 -0.822,-1.295 -3.944,-3.958 -9.775,-8.562 -11.88,-13.26 0,-0.08 0.003,-0.156 0.011,-0.225 0.339,-0.298 0.617,-0.66 0.82,-1.067 z"
       inkscape:connector-curvature="0"
       style="fill:url(#_lgradient_1);fill-rule:evenodd" />
  </g>
</svg>

<?xml version="1.0" encoding="UTF-8" standalone="no"?><!-- Generator: Gravit.io --><svg xmlns="http://www.w3.org/2000/svg" xmlns:xlink="http://www.w3.org/1999/xlink" style="isolation:isolate" viewBox="0 0 48 48" width="48pt" height="48pt"><linearGradient id="_lgradient_1" x1="0" y1="0.5" x2="1" y2="0.5" gradientTransform="matrix(48,0,0,46.642,0,0.679)" gradientUnits="userSpaceOnUse"><stop offset="0%" stop-opacity="1" style="stop-color:rgb(247,242,6)"/><stop offset="97.82608695652173%" stop-opacity="1" style="stop-color:rgb(255,187,36)"/></linearGradient><path d=" M 25.772 4.121 C 28.176 1.939 31.336 0.686 34.668 0.679 C 38.196 0.679 41.59 2.084 44.093 4.576 C 46.595 7.078 48 10.473 48 14.011 C 48 16.883 47.067 19.672 45.354 21.969 C 45.293 22.144 45.221 22.318 45.159 22.492 L 45.159 22.492 C 45.077 23.426 44.626 24.297 43.908 24.902 C 43.907 24.903 43.906 24.904 43.906 24.904 L 43.906 24.904 C 43.922 25.497 43.945 25.416 43.939 26.113 C 44.093 27.128 44.205 28.153 44.288 29.179 C 44.339 29.856 44.411 30.543 44.493 31.22 C 44.575 31.804 44.677 32.379 44.821 32.953 C 45.098 34.03 45.569 35.035 46.236 35.917 C 46.78 36.584 47.087 37.414 47.098 38.276 C 47.087 39.127 46.79 39.958 46.257 40.624 C 45.99 40.973 45.713 41.301 45.405 41.619 C 44.749 42.306 44.031 42.921 43.241 43.444 C 42.421 44.009 41.57 44.511 40.678 44.952 C 38.801 45.896 36.811 46.583 34.76 46.993 C 34.052 47.116 33.345 47.208 32.627 47.249 C 31.848 47.301 31.078 47.321 30.299 47.321 C 29.161 47.321 28.022 47.28 26.894 47.177 C 25.879 47.116 24.874 46.962 23.889 46.726 C 23.869 46.716 23.848 46.716 23.817 46.706 C 23.059 46.511 22.289 46.295 21.531 46.07 C 20.679 45.834 19.849 45.526 19.049 45.167 C 18.372 44.829 17.726 44.46 17.11 44.039 C 16.505 43.639 15.921 43.209 15.367 42.757 C 14.844 42.347 14.341 41.896 13.88 41.414 C 13.654 41.188 13.449 40.942 13.265 40.675 C 12.588 39.773 12.372 38.604 12.67 37.517 C 13.439 36.102 14.362 34.758 15.408 33.527 C 15.613 33.291 15.818 33.056 16.034 32.83 C 15.808 32.235 15.695 31.61 15.705 30.974 C 14.782 30.061 13.839 29.169 12.895 28.287 C 11.06 26.625 9.306 24.892 7.614 23.077 C 6.763 22.154 5.973 21.19 5.234 20.175 C 4.414 19.036 3.717 17.816 3.163 16.534 C 3.153 16.483 3.144 16.431 3.137 16.379 L 3.137 16.379 C 1.361 16.117 0 14.584 0 12.736 C 0 10.699 1.654 9.044 3.692 9.044 C 5.202 9.044 6.502 9.953 7.063 11.258 C 7.478 11.203 7.9 11.181 8.321 11.181 L 8.701 11.191 C 8.711 11.191 8.721 11.191 8.732 11.191 C 8.937 11.191 9.142 11.201 9.347 11.201 C 9.829 11.191 10.311 11.191 10.793 11.191 C 11.624 11.181 12.454 11.181 13.295 11.181 C 13.295 11.181 13.306 11.181 13.306 11.181 L 16.625 11.187 L 16.625 11.187 C 16.7 10.39 16.995 9.63 17.48 8.986 C 17.992 8.34 18.669 7.837 19.438 7.54 C 19.92 7.355 20.433 7.232 20.956 7.16 C 21.305 7.109 21.664 7.078 22.023 7.048 C 22.177 7.037 22.32 7.027 22.474 7.007 C 22.587 6.996 22.71 6.986 22.833 6.986 L 23.356 6.986 C 23.829 6.226 24.371 5.524 24.97 4.883 C 25.129 4.691 25.308 4.515 25.499 4.35 L 25.499 4.35 C 25.588 4.271 25.679 4.195 25.772 4.121 Z  M 24.029 10.065 L 22.834 10.065 C 21.709 10.211 19.679 10.065 19.679 11.643 C 19.679 11.794 20.943 11.914 22.483 12.62 C 24.259 13.433 26.201 14.638 27.79 15.914 C 32.036 19.324 33.813 20.364 37.851 21.809 C 41.68 23.179 42.131 22.687 42.101 22.083 C 42.092 21.906 42.336 21.242 42.649 20.441 C 44.069 18.681 44.923 16.446 44.923 14.009 C 44.923 8.345 40.332 3.754 34.668 3.754 L 34.668 3.754 L 34.668 3.754 L 34.668 3.754 C 33.746 3.754 32.855 3.876 32.011 4.114 C 32.123 4.225 32.234 4.336 32.34 4.453 C 33.037 5.253 33.417 6.289 33.396 7.355 C 33.376 8.863 32.699 10.278 31.56 11.263 C 30.596 12.114 29.366 12.596 28.074 12.606 C 26.802 12.637 25.571 12.104 24.72 11.15 C 24.435 10.823 24.203 10.457 24.029 10.065 Z  M 27.249 6.947 C 27.432 6.765 27.616 6.584 27.819 6.423 C 28.179 6.2 28.594 6.071 29.027 6.063 C 29.407 6.063 29.766 6.217 30.032 6.494 C 30.217 6.719 30.33 7.007 30.319 7.314 C 30.309 7.94 30.022 8.535 29.53 8.935 C 29.12 9.314 28.586 9.529 28.033 9.54 C 27.653 9.54 27.284 9.386 27.027 9.109 C 26.833 8.883 26.73 8.596 26.73 8.289 C 26.746 7.794 26.929 7.318 27.249 6.947 L 27.249 6.947 Z  M 27.207 30.175 C 28.554 29.723 30.287 28.497 31.628 27.047 C 32.379 26.235 32.454 26.042 32.086 25.867 C 31.811 25.736 30.978 26.148 29.876 26.96 C 27.888 28.423 26.008 29.3 24.752 29.349 C 24.288 29.367 23.614 29.49 23.253 29.622 C 22.632 29.851 22.653 29.884 23.646 30.24 C 24.94 30.705 25.666 30.691 27.207 30.175 L 27.207 30.175 L 27.207 30.175 L 27.207 30.175 L 27.207 30.175 Z  M 6.985 14.4 C 7.38 14.277 7.929 14.246 8.659 14.267 C 9.422 14.287 16.1 14.273 17.924 14.268 L 17.924 14.268 L 18.628 14.565 C 18.71 14.606 18.803 14.637 18.895 14.667 C 19.1 14.739 19.315 14.791 19.531 14.842 C 20.105 14.996 20.669 15.18 21.223 15.426 C 22.874 16.196 24.433 17.16 25.858 18.308 C 26.802 19.077 27.776 19.826 28.771 20.554 C 29.591 21.159 30.453 21.723 31.335 22.246 C 32.176 22.739 33.047 23.18 33.94 23.58 C 34.883 23.99 35.837 24.359 36.811 24.708 C 37.611 24.995 38.421 25.251 39.242 25.467 C 39.777 25.607 40.321 25.702 40.865 25.746 C 40.865 25.924 40.865 26.121 40.865 26.326 C 41.534 30.473 41.007 34.158 43.833 37.843 C 44.177 38.296 44.095 38.506 43.189 39.484 C 41.398 41.419 37.622 43.297 34.177 43.969 C 31.845 44.423 26.779 44.297 24.59 43.73 L 24.59 43.73 C 23.45 43.435 21.285 42.827 20.357 42.38 C 18.473 41.471 15.618 39.164 15.618 38.551 C 16.815 36.477 18.567 34.304 20.354 33.2 C 19.028 32.344 18.586 31.78 18.856 30.247 C 18.856 30.247 18.995 29.693 18.034 28.952 C 14.09 24.994 8.259 20.39 6.154 15.692 C 6.154 15.612 6.157 15.536 6.165 15.467 C 6.504 15.169 6.782 14.807 6.985 14.4 L 6.985 14.4 Z " fill-rule="evenodd" fill="url(#_lgradient_1)"/></svg>
